svg/m/NI.svg

<svg width="20" height="15" viewBox="0 0 20 15" fill="none" xmlns="http://www.w3.org/2000/svg">
<g clip-path="url(#clip0_270_60834)">
<rect width="20" height="15" fill="white"/>
<path fill-rule="evenodd" clip-rule="evenodd" d="M0 0V15H20V0H0Z" fill="#F7FCFF"/>
<mask id="mask0_270_60834" style="mask-type:luminance" maskUnits="userSpaceOnUse" x="0" y="0" width="20" height="15">
<path fill-rule="evenodd" clip-rule="evenodd" d="M0 0V15H20V0H0Z" fill="white"/>
</mask>
<g mask="url(#mask0_270_60834)">
<path fill-rule="evenodd" clip-rule="evenodd" d="M0 0V5H20V0H0Z" fill="#0080EC"/>
<path fill-rule="evenodd" clip-rule="evenodd" d="M0 10V15H20V10H0Z" fill="#0080EC"/>
<path fill-rule="evenodd" clip-rule="evenodd" d="M10 5C10.1178 5 10.2337 5.00815 10.3471 5.0239L10.2233 5.82141C10.1502 5.81179 10.0757 5.80682 10 5.80682C9.88991 5.80682 9.78228 5.81732 9.67805 5.83739L9.62019 5.02867C9.74404 5.00979 9.87088 5 10 5ZM10.7201 5.10526L10.5028 5.88273C11.1924 6.0969 11.6932 6.73997 11.6932 7.5C11.6932 7.51868 11.6929 7.53729 11.6923 7.55583L12.497 7.62405C12.499 7.58295 12.5 7.54159 12.5 7.5C12.5 6.36961 11.7498 5.41444 10.7201 5.10526ZM12.1959 8.69598C11.7997 9.42184 11.0541 9.92962 10.1852 9.99324V9.18317C10.6481 9.13281 11.055 8.89586 11.3291 8.5491L12.1959 8.69598ZM7.8605 8.79397C8.27548 9.47865 9.00985 9.9482 9.85698 9.99598V9.18723C9.36327 9.14594 8.92978 8.89281 8.64767 8.51902L7.8605 8.79397ZM7.50226 7.60719C7.50076 7.57165 7.5 7.53591 7.5 7.5C7.5 6.43848 8.1616 5.53148 9.09494 5.16886L9.30361 5.9562C8.71929 6.22019 8.31162 6.80619 8.30686 7.48793L7.50226 7.60719Z" fill="#D0AB00"/>
<path fill-rule="evenodd" clip-rule="evenodd" d="M9.98426 5.59357L8.27371 8.5503H11.7217L9.98426 5.59357Z" fill="#7CDFFF"/>
<mask id="mask1_270_60834" style="mask-type:luminance" maskUnits="userSpaceOnUse" x="8" y="5" width="4" height="4">
<path fill-rule="evenodd" clip-rule="evenodd" d="M9.98426 5.59357L8.27371 8.5503H11.7217L9.98426 5.59357Z" fill="white"/>
</mask>
<g mask="url(#mask1_270_60834)">
<path d="M10 9.44884C10.8253 9.44884 11.4943 8.77981 11.4943 7.95452C11.4943 7.12923 10.8253 6.46021 10 6.46021C9.17471 6.46021 8.50568 7.12923 8.50568 7.95452C8.50568 8.77981 9.17471 9.44884 10 9.44884Z" stroke="#E31D1C" stroke-width="0.625"/>
<path d="M10 9.44884C10.8253 9.44884 11.4943 8.77981 11.4943 7.95452C11.4943 7.12923 10.8253 6.46021 10 6.46021C9.17471 6.46021 8.50568 7.12923 8.50568 7.95452C8.50568 8.77981 9.17471 9.44884 10 9.44884Z" stroke="#FFD018" stroke-width="0.625"/>
<path d="M10 9.44884C10.8253 9.44884 11.4943 8.77981 11.4943 7.95452C11.4943 7.12923 10.8253 6.46021 10 6.46021C9.17471 6.46021 8.50568 7.12923 8.50568 7.95452C8.50568 8.77981 9.17471 9.44884 10 9.44884Z" stroke="#4EDD00" stroke-width="0.625"/>
<path d="M10 9.44884C10.8253 9.44884 11.4943 8.77981 11.4943 7.95452C11.4943 7.12923 10.8253 6.46021 10 6.46021C9.17471 6.46021 8.50568 7.12923 8.50568 7.95452C8.50568 8.77981 9.17471 9.44884 10 9.44884Z" stroke="#3D58DB" stroke-width="0.625"/>
<rect x="8.13636" y="7.63635" width="3.90909" height="1.13636" fill="#3D58DB"/>
<path fill-rule="evenodd" clip-rule="evenodd" d="M8.39808 8.11931L9.17719 7.34453L9.4163 7.73192L9.58334 7.25949L9.76885 7.61361L9.96371 7.34453L10.2158 7.61361L10.447 7.25949L10.6446 7.61361L10.8713 7.34453L11.401 7.90745L11.4963 8.11931L8.39808 8.27647V8.11931Z" fill="#97C923"/>
</g>
</g>
</g>
<defs>
<clipPath id="clip0_270_60834">
<rect width="20" height="15" fill="white"/>
</clipPath>
</defs>
</svg>

<svg width="20" height="15" fill="none" xmlns="http://www.w3.org/2000/svg">
  <mask id="a" maskUnits="userSpaceOnUse" x="0" y="0" width="20" height="15">
    <path fill="#fff" d="M0 0h20v15H0z"/>
  </mask>
  <g mask="url(#a)">
    <path fill-rule="evenodd" clip-rule="evenodd" d="M0 0v15h20V0H0z" fill="#F7FCFF"/>
    <mask id="b" maskUnits="userSpaceOnUse" x="0" y="0" width="20" height="15">
      <path fill-rule="evenodd" clip-rule="evenodd" d="M0 0v15h20V0H0z" fill="#fff"/>
    </mask>
    <g mask="url(#b)">
      <path fill-rule="evenodd" clip-rule="evenodd" d="M0 0v5h20V0H0zm0 10v5h20v-5H0z" fill="#0080EC"/>
      <path fill-rule="evenodd" clip-rule="evenodd" d="M10 5c.118 0 .234.008.347.024l-.124.797a1.71 1.71 0 00-.545.016L9.62 5.03A2.52 2.52 0 0110 5zm.72.105l-.217.778a1.694 1.694 0 011.19 1.673l.804.068a2.501 2.501 0 00-1.777-2.519zm1.476 3.591a2.5 2.5 0 01-2.01 1.297v-.81c.462-.05.869-.287 1.143-.634l.867.147zm-4.335.098a2.5 2.5 0 001.996 1.202v-.809a1.691 1.691 0 01-1.21-.668l-.787.275zm-.359-1.187A2.5 2.5 0 019.095 5.17l.209.787c-.585.264-.992.85-.997 1.532l-.805.12z" fill="#D0AB00"/>
      <path fill-rule="evenodd" clip-rule="evenodd" d="M9.984 5.594L8.274 8.55h3.448L9.984 5.594z" fill="#7CDFFF"/>
      <mask id="c" maskUnits="userSpaceOnUse" x="8" y="5" width="4" height="4">
        <path fill-rule="evenodd" clip-rule="evenodd" d="M9.984 5.594L8.274 8.55h3.448L9.984 5.594z" fill="#fff"/>
      </mask>
      <g mask="url(#c)">
        <path d="M10 9.449a1.494 1.494 0 100-2.989 1.494 1.494 0 000 2.989z" stroke="#E31D1C" stroke-width=".625"/>
        <path d="M10 9.449a1.494 1.494 0 100-2.989 1.494 1.494 0 000 2.989z" stroke="#FFD018" stroke-width=".625"/>
        <path d="M10 9.449a1.494 1.494 0 100-2.989 1.494 1.494 0 000 2.989z" stroke="#4EDD00" stroke-width=".625"/>
        <path d="M10 9.449a1.494 1.494 0 100-2.989 1.494 1.494 0 000 2.989z" stroke="#3D58DB" stroke-width=".625"/>
        <path fill="#3D58DB" d="M8.136 7.636h3.909v1.136H8.136z"/>
        <path fill-rule="evenodd" clip-rule="evenodd" d="M8.398 8.12l.78-.775.238.387.167-.473.186.355.195-.27.252.27.231-.355.198.355.226-.27.53.563.095.212-3.098.157V8.12z" fill="#97C923"/>
      </g>
    </g>
  </g>
</svg>
